public/images/logos/yelp.svg

<?xml version="1.0" encoding="UTF-8" standalone="no"?>
<!-- Created with Vectornator (http://vectornator.io/) -->

<svg height="32" stroke-miterlimit="10" style="clip-rule:evenodd;fill-rule:nonzero;stroke-linecap:round;stroke-linejoin:round" version="1.1" viewBox="0 0 32 32" width="32" xml:space="preserve" id="svg3" sodipodi:docname="yelp.svg" inkscape:version="1.4-beta2 (9aaf4f34, 2024-07-30)" xmlns:inkscape="http://www.inkscape.org/namespaces/inkscape" xmlns:sodipodi="http://sodipodi.sourceforge.net/DTD/sodipodi-0.dtd" xmlns="http://www.w3.org/2000/svg" xmlns:svg="http://www.w3.org/2000/svg"><sodipodi:namedview id="namedview3" pagecolor="#ffffff" bordercolor="#000000" borderopacity="0.25" inkscape:showpageshadow="2" inkscape:pageopacity="0.0" inkscape:pagecheckerboard="0" inkscape:deskcolor="#d1d1d1" inkscape:zoom="0.87518889" inkscape:cx="111.97583" inkscape:cy="72.555766" inkscape:window-width="1440" inkscape:window-height="872" inkscape:window-x="0" inkscape:window-y="0" inkscape:window-maximized="1" inkscape:current-layer="svg3" />
<defs id="defs1" />

<g opacity="1" id="g3" style="clip-rule:evenodd;fill-rule:nonzero;stroke-linecap:round;stroke-linejoin:round;fill:#000000" transform="matrix(0.49216361,0,0,0.49216361,-65.552483,-2.4608176)">
<path d="m 156.767,46.0251 2.995,-0.6933 c 0.099,-0.0218 0.197,-0.048 0.294,-0.0785 1.718,-0.462 2.762,-2.2018 2.361,-3.9356 l -0.013,-0.0532 c -0.099,-0.3997 -0.271,-0.7775 -0.509,-1.1139 -0.336,-0.425 -0.751,-0.7806 -1.222,-1.0468 -0.556,-0.3168 -1.137,-0.5859 -1.738,-0.8042 l -3.282,-1.1971 c -1.842,-0.6841 -3.686,-1.3519 -5.546,-2.0036 -1.204,-0.4276 -2.226,-0.8042 -3.115,-1.0769 -0.167,-0.0532 -0.352,-0.104 -0.502,-0.1549 -1.075,-0.3304 -1.826,-0.4668 -2.466,-0.4691 -0.426,-0.0157 -0.85,0.0616 -1.243,0.2265 -0.411,0.1765 -0.779,0.438 -1.082,0.7672 -0.15,0.1713 -0.291,0.3502 -0.423,0.5362 -0.256,0.3935 -0.467,0.8144 -0.63,1.2548 -0.609,1.8011 -0.912,3.6914 -0.897,5.5926 0.014,1.7193 0.06,3.924 1.005,5.4192 0.227,0.3836 0.532,0.7164 0.897,0.9729 0.672,0.4645 1.352,0.5269 2.061,0.5777 1.056,0.074 2.08,-0.1849 3.102,-0.4206 l 9.946,-2.3017 z m 33.396,-15.904 c -0.817,-1.7153 -1.916,-3.2815 -3.251,-4.6335 -0.174,-0.1711 -0.359,-0.3295 -0.555,-0.4738 -0.18,-0.136 -0.368,-0.2625 -0.562,-0.379 -0.2,-0.1087 -0.406,-0.2067 -0.617,-0.2935 -0.415,-0.1636 -0.86,-0.2376 -1.305,-0.2172 -0.426,0.0258 -0.842,0.1432 -1.218,0.3443 -0.571,0.2843 -1.188,0.7395 -2.011,1.5022 -0.113,0.1155 -0.254,0.2426 -0.383,0.3605 -0.678,0.6378 -1.433,1.4258 -2.33,2.341 -1.386,1.4004 -2.75,2.8101 -4.107,4.2337 l -2.426,2.5189 c -0.444,0.4622 -0.848,0.9568 -1.209,1.486 -0.307,0.446 -0.524,0.9475 -0.64,1.479 -0.068,0.4063 -0.059,0.822 0.028,1.2248 l 0.014,0.0532 c 0.399,1.7316 2.098,2.836 3.843,2.4981 0.132,-0.0185 0.236,-0.0416 0.3,-0.0555 l 12.942,-2.995 c 1.021,-0.2357 2.057,-0.4529 2.972,-0.9844 0.615,-0.3582 1.199,-0.7118 1.599,-1.4236 0.215,-0.3922 0.345,-0.8253 0.381,-1.271 0.199,-1.7633 -0.723,-3.7669 -1.465,-5.3152 z m -23.165,5.4492 c 0.938,-1.1786 0.933,-2.9349 1.017,-4.3723 0.282,-4.7976 0.577,-9.5952 0.811,-14.3973 0.092,-1.8165 0.286,-3.6098 0.175,-5.4424 -0.087,-1.51134 -0.099,-3.24687 -1.053,-4.48786 -1.687,-2.18617 -5.279,-2.00592 -7.728,-1.6639 -0.751,0.104 -1.502,0.24266 -2.249,0.42291 -0.746,0.18026 -1.484,0.37438 -2.207,0.60778 -2.35,0.76956 -5.657,2.18387 -6.217,4.89467 -0.314,1.5321 0.435,3.0967 1.015,4.4971 0.703,1.6939 1.664,3.2192 2.542,4.8137 2.313,4.2129 4.673,8.3958 7.026,12.5856 0.702,1.2479 1.467,2.8332 2.826,3.4803 0.09,0.0393 0.18,0.0739 0.275,0.104 0.608,0.2311 1.271,0.2773 1.906,0.1271 l 0.116,-0.0255 c 0.585,-0.1617 1.114,-0.4783 1.53,-0.922 0.076,-0.0694 0.148,-0.1433 0.215,-0.2219 z m -1.119,12.8467 c -0.751,-1.0574 -2.097,-1.5108 -3.334,-1.1232 -0.144,0.0463 -0.28,0.104 -0.416,0.1711 -0.206,0.1064 -0.403,0.2301 -0.587,0.3697 -0.539,0.3975 -0.994,0.9175 -1.406,1.4374 -0.106,0.1341 -0.201,0.3097 -0.325,0.4252 l -2.08,2.8656 c -1.181,1.6038 -2.346,3.2123 -3.499,4.8461 -0.754,1.0561 -1.403,1.9459 -1.918,2.7339 -0.097,0.1502 -0.199,0.3166 -0.291,0.4483 -0.617,0.9545 -0.966,1.6501 -1.144,2.2694 -0.135,0.4125 -0.178,0.8495 -0.125,1.2803 0.058,0.4483 0.208,0.8781 0.444,1.2641 0.124,0.1941 0.258,0.3813 0.402,0.5615 0.312,0.3587 0.663,0.6811 1.047,0.9614 1.437,1.0006 3.011,1.7194 4.668,2.274 1.377,0.4563 2.808,0.7291 4.257,0.8111 0.245,0.0116 0.492,0.007 0.739,-0.0161 0.227,-0.0198 0.453,-0.0514 0.677,-0.0948 0.225,-0.0528 0.446,-0.1176 0.663,-0.1941 0.845,-0.2993 1.511,-0.9592 1.819,-1.8003 0.241,-0.6008 0.398,-1.3634 0.502,-2.4912 0.009,-0.1617 0.032,-0.3559 0.048,-0.5315 0.081,-0.9382 0.12,-2.0406 0.181,-3.337 0.099,-1.9921 0.18,-3.9749 0.242,-5.9669 l 0.132,-3.5358 c 0.03,-0.8181 0.005,-1.7194 -0.222,-2.5305 -0.099,-0.3889 -0.26,-0.7595 -0.476,-1.0977 z m 23.503,5.5301 c -0.434,-0.4761 -1.049,-0.9521 -2.022,-1.5391 -0.139,-0.0786 -0.305,-0.1826 -0.455,-0.2727 -0.809,-0.4853 -1.784,-0.9983 -2.921,-1.6177 -1.747,-0.9548 -3.502,-1.8946 -5.265,-2.8193 l -3.12,-1.6547 c -0.161,-0.0462 -0.326,-0.1618 -0.478,-0.2357 -0.6,-0.3071 -1.237,-0.5347 -1.895,-0.6771 -0.227,-0.0429 -0.458,-0.0661 -0.689,-0.0694 -0.149,-0.0043 -0.298,0.0042 -0.446,0.0255 -1.28,0.1973 -2.289,1.1947 -2.5,2.4727 -0.046,0.3975 -0.033,0.7996 0.044,1.1901 0.152,0.832 0.524,1.6524 0.908,2.3711 l 1.666,3.1221 c 0.927,1.761 1.867,3.5127 2.829,5.2575 0.621,1.137 1.137,2.1122 1.62,2.9187 0.092,0.1525 0.196,0.3166 0.277,0.4553 0.587,0.9706 1.061,1.583 1.539,2.0197 0.312,0.3005 0.684,0.5293 1.093,0.6702 0.428,0.141 0.883,0.1918 1.331,0.1479 0.229,-0.0279 0.456,-0.068 0.68,-0.1201 0.222,-0.0578 0.439,-0.1295 0.654,-0.2103 0.231,-0.0879 0.455,-0.1918 0.67,-0.312 1.266,-0.7104 2.433,-1.5846 3.471,-2.5999 1.246,-1.2248 2.346,-2.5628 3.201,-4.0904 0.119,-0.217 0.223,-0.4426 0.31,-0.6748 0.08,-0.2134 0.15,-0.4309 0.208,-0.6517 0.05,-0.2264 0.09,-0.4529 0.115,-0.6817 0.043,-0.4495 -0.009,-0.903 -0.152,-1.3311 -0.141,-0.409 -0.37,-0.7821 -0.671,-1.0931 z" fill="#000000" fill-rule="nonzero" opacity="1" stroke="none" id="path2" style="fill:#000000" />

</g>
</svg>

<?xml version="1.0" encoding="UTF-8" standalone="no"?>
<!DOCTYPE svg PUBLIC "-//W3C//DTD SVG 1.1//EN" "http://www.w3.org/Graphics/SVG/1.1/DTD/svg11.dtd">
<!-- Created with Vectornator (http://vectornator.io/) -->
<svg height="100%" stroke-miterlimit="10" style="fill-rule:nonzero;clip-rule:evenodd;stroke-linecap:round;stroke-linejoin:round;" version="1.1" viewBox="0 0 200 80" width="100%" xml:space="preserve" xmlns="http://www.w3.org/2000/svg" xmlns:xlink="http://www.w3.org/1999/xlink">
<defs/>
<path d="M0 0L200 0L200 80L0 80L0 0Z" fill="#000000" fill-opacity="0" fill-rule="nonzero" opacity="1" stroke="none"/>
<g id="Sem-Título">
<g opacity="1">
<path d="M156.767 46.0251L159.762 45.3318C159.861 45.31 159.959 45.2838 160.056 45.2533C161.774 44.7913 162.818 43.0515 162.417 41.3177L162.404 41.2645C162.305 40.8648 162.133 40.487 161.895 40.1506C161.559 39.7256 161.144 39.37 160.673 39.1038C160.117 38.787 159.536 38.5179 158.935 38.2996L155.653 37.1025C153.811 36.4184 151.967 35.7506 150.107 35.0989C148.903 34.6713 147.881 34.2947 146.992 34.022C146.825 33.9688 146.64 33.918 146.49 33.8671C145.415 33.5367 144.664 33.4003 144.024 33.398C143.598 33.3823 143.174 33.4596 142.781 33.6245C142.37 33.801 142.002 34.0625 141.699 34.3917C141.549 34.563 141.408 34.7419 141.276 34.9279C141.02 35.3214 140.809 35.7423 140.646 36.1827C140.037 37.9838 139.734 39.8741 139.749 41.7753C139.763 43.4946 139.809 45.6993 140.754 47.1945C140.981 47.5781 141.286 47.9109 141.651 48.1674C142.323 48.6319 143.003 48.6943 143.712 48.7451C144.768 48.8191 145.792 48.5602 146.814 48.3245L156.76 46.0228L156.767 46.0251ZM190.163 30.1211C189.346 28.4058 188.247 26.8396 186.912 25.4876C186.738 25.3165 186.553 25.1581 186.357 25.0138C186.177 24.8778 185.989 24.7513 185.795 24.6348C185.595 24.5261 185.389 24.4281 185.178 24.3413C184.763 24.1777 184.318 24.1037 183.873 24.1241C183.447 24.1499 183.031 24.2673 182.655 24.4684C182.084 24.7527 181.467 25.2079 180.644 25.9706C180.531 26.0861 180.39 26.2132 180.261 26.3311C179.583 26.9689 178.828 27.7569 177.931 28.6721C176.545 30.0725 175.181 31.4822 173.824 32.9058L171.398 35.4247C170.954 35.8869 170.55 36.3815 170.189 36.9107C169.882 37.3567 169.665 37.8582 169.549 38.3897C169.481 38.796 169.49 39.2117 169.577 39.6145L169.591 39.6677C169.99 41.3993 171.689 42.5037 173.434 42.1658C173.566 42.1473 173.67 42.1242 173.734 42.1103L186.676 39.1153C187.697 38.8796 188.733 38.6624 189.648 38.1309C190.263 37.7727 190.847 37.4191 191.247 36.7073C191.462 36.3151 191.592 35.882 191.628 35.4363C191.827 33.673 190.905 31.6694 190.163 30.1211ZM166.998 35.5703C167.936 34.3917 167.931 32.6354 168.015 31.198C168.297 26.4004 168.592 21.6028 168.826 16.8007C168.918 14.9842 169.112 13.1909 169.001 11.3583C168.914 9.84696 168.902 8.11143 167.948 6.87044C166.261 4.68427 162.669 4.86452 160.22 5.20654C159.469 5.31054 158.718 5.4492 157.971 5.62945C157.225 5.80971 156.487 6.00383 155.764 6.23723C153.414 7.00679 150.107 8.4211 149.547 11.1319C149.233 12.664 149.982 14.2286 150.562 15.629C151.265 17.3229 152.226 18.8482 153.104 20.4427C155.417 24.6556 157.777 28.8385 160.13 33.0283C160.832 34.2762 161.597 35.8615 162.956 36.5086C163.046 36.5479 163.136 36.5825 163.231 36.6126C163.839 36.8437 164.502 36.8899 165.137 36.7397L165.253 36.7142C165.838 36.5525 166.367 36.2359 166.783 35.7922C166.859 35.7228 166.931 35.6489 166.998 35.5703ZM165.879 48.417C165.128 47.3596 163.782 46.9062 162.545 47.2938C162.401 47.3401 162.265 47.3978 162.129 47.4649C161.923 47.5713 161.726 47.695 161.542 47.8346C161.003 48.2321 160.548 48.7521 160.136 49.272C160.03 49.4061 159.935 49.5817 159.811 49.6972L157.731 52.5628C156.55 54.1666 155.385 55.7751 154.232 57.4089C153.478 58.465 152.829 59.3548 152.314 60.1428C152.217 60.293 152.115 60.4594 152.023 60.5911C151.406 61.5456 151.057 62.2412 150.879 62.8605C150.744 63.273 150.701 63.71 150.754 64.1408C150.812 64.5891 150.962 65.0189 151.198 65.4049C151.322 65.599 151.456 65.7862 151.6 65.9664C151.912 66.3251 152.263 66.6475 152.647 66.9278C154.084 67.9284 155.658 68.6472 157.315 69.2018C158.692 69.6581 160.123 69.9309 161.572 70.0129C161.817 70.0245 162.064 70.0199 162.311 69.9968C162.538 69.977 162.764 69.9454 162.988 69.902C163.213 69.8492 163.434 69.7844 163.651 69.7079C164.496 69.4086 165.162 68.7487 165.47 67.9076C165.711 67.3068 165.868 66.5442 165.972 65.4164C165.981 65.2547 166.004 65.0605 166.02 64.8849C166.101 63.9467 166.14 62.8443 166.201 61.5479C166.3 59.5558 166.381 57.573 166.443 55.581L166.575 52.0452C166.605 51.2271 166.58 50.3258 166.353 49.5147C166.254 49.1258 166.093 48.7552 165.877 48.417L165.879 48.417ZM189.382 53.9471C188.948 53.471 188.333 52.995 187.36 52.408C187.221 52.3294 187.055 52.2254 186.905 52.1353C186.096 51.65 185.121 51.137 183.984 50.5176C182.237 49.5628 180.482 48.623 178.719 47.6983L175.599 46.0436C175.438 45.9974 175.273 45.8818 175.121 45.8079C174.521 45.5008 173.884 45.2732 173.226 45.1308C172.999 45.0879 172.768 45.0647 172.537 45.0614C172.388 45.0571 172.239 45.0656 172.091 45.0869C170.811 45.2842 169.802 46.2816 169.591 47.5596C169.545 47.9571 169.558 48.3592 169.635 48.7497C169.787 49.5817 170.159 50.4021 170.543 51.1208L172.209 54.2429C173.136 56.0039 174.076 57.7556 175.038 59.5004C175.659 60.6374 176.175 61.6126 176.658 62.4191C176.75 62.5716 176.854 62.7357 176.935 62.8744C177.522 63.845 177.996 64.4574 178.474 64.8941C178.786 65.1946 179.158 65.4234 179.567 65.5643C179.995 65.7053 180.45 65.7561 180.898 65.7122C181.127 65.6843 181.354 65.6442 181.578 65.5921C181.8 65.5343 182.017 65.4626 182.232 65.3818C182.463 65.2939 182.687 65.19 182.902 65.0698C184.168 64.3594 185.335 63.4852 186.373 62.4699C187.619 61.2451 188.719 59.9071 189.574 58.3795C189.693 58.1625 189.797 57.9369 189.884 57.7047C189.964 57.4913 190.034 57.2738 190.092 57.053C190.142 56.8266 190.182 56.6001 190.207 56.3713C190.25 55.9218 190.198 55.4683 190.055 55.0402C189.914 54.6312 189.685 54.2581 189.384 53.9471L189.382 53.9471Z" fill="#000000" fill-rule="nonzero" opacity="1" stroke="none"/>
<path d="M81.9602 23.5787C81.9602 21.0066 84.0585 18.9036 86.5868 18.9036C89.0826 18.9036 91.1048 21.0066 91.2134 23.6157L91.2134 60.1058C91.2134 62.6802 89.1173 64.7809 86.5868 64.7809C85.3513 64.781 84.167 64.2869 83.298 63.4087C82.4289 62.5305 81.9472 61.3413 81.9602 60.1058L81.9602 23.581L81.9602 23.5787ZM77.6617 46.1199C77.6247 46.8432 77.4445 48.1836 76.5062 49.1634C75.4917 50.2149 74.119 50.4668 73.324 50.4668C70.0169 50.4853 66.7099 50.4945 63.4029 50.5038C60.0982 50.513 56.7888 50.5223 53.4818 50.5407C53.773 51.4466 54.3507 52.824 55.6518 54.0904C56.4468 54.853 57.2048 55.2875 57.5306 55.4677C57.9281 55.7219 59.3009 56.4476 60.9994 56.4476C62.8066 56.4476 64.3966 55.8675 65.9519 55.0702L66.0813 55.0009C67.1606 54.444 68.2768 53.8662 69.4554 53.6559C70.6132 53.4757 71.8426 53.6929 72.7462 54.4879C73.8301 55.4331 74.2645 56.8104 73.8671 58.2224C73.3956 59.817 72.0599 61.1943 70.6502 62.0286C69.8552 62.4977 68.9862 62.8975 68.1196 63.2233C65.8826 64.0161 63.5172 64.3845 61.145 64.3095C60.5673 64.3095 59.9526 64.3095 59.3378 64.2401C58.6925 64.157 58.0527 64.0351 57.422 63.875C56.4247 63.6587 55.4549 63.3308 54.531 62.8975C53.6058 62.4876 52.7221 61.99 51.8918 61.4115C51.064 60.8164 50.2906 60.149 49.5808 59.4172C48.8743 58.677 48.2326 57.8775 47.6627 57.0276C45.7122 54.0557 44.8086 50.3952 44.9889 46.8432C45.1345 43.3652 46.29 39.8872 48.386 37.0586C48.6088 36.7271 48.856 36.4127 49.1256 36.118C49.2319 35.9955 49.3359 35.8754 49.4352 35.7552C52.0235 32.5892 55.4831 31.5885 56.909 31.1749L56.9876 31.1517C59.8822 30.3298 62.9486 30.3298 65.8433 31.1517C66.5297 31.3343 70.3959 32.5291 73.3956 35.7552C73.5412 35.9008 73.9387 36.3699 74.4448 37.0586C75.7279 38.8058 76.6703 40.7791 77.2226 42.8753L77.2272 42.8938C77.4445 43.691 77.6617 44.7772 77.6617 46.1199ZM56.4468 40.1391C55.0191 41.2999 54.0256 42.9091 53.6274 44.7056L69.3837 44.7056C68.9585 42.9118 67.9557 41.3074 66.5297 40.1391C65.0926 38.9863 63.3107 38.3484 61.4686 38.3273C60.7822 38.3273 58.5429 38.4359 56.4468 40.1391ZM116.366 30.537C112.248 30.537 108.488 32.3858 105.814 35.3924L105.814 35.2838C105.744 32.7388 103.624 30.7326 101.079 30.8028C98.534 30.873 96.5278 32.993 96.598 35.538L96.598 70.3642C96.598 72.9363 98.6594 75 101.225 75C103.79 75 105.851 72.9363 105.851 70.3619L105.851 59.4911C108.525 62.463 112.248 64.3465 116.403 64.3465C124.679 64.3465 131.402 56.8451 131.402 47.4972C131.365 38.147 124.642 30.5347 116.366 30.5347L116.366 30.537ZM114.342 56.7734C109.646 56.7734 105.814 52.6784 105.814 47.5688C105.814 42.4223 109.609 38.3273 114.342 38.3273C119.042 38.3273 122.872 42.4223 122.872 47.5688C122.837 52.6761 119.042 56.7734 114.344 56.7734L114.342 56.7734ZM38.0513 49.9237L36.533 53.2584C35.8466 54.7074 35.1602 56.1934 34.5085 57.6793C34.3005 58.1346 34.0925 58.5991 33.8799 59.0728C30.9912 65.4973 27.564 73.1258 20.0902 74.7481C16.4758 75.5454 11.0173 74.4569 8.99515 71.0506C6.97072 67.6072 9.97039 63.6578 13.8367 64.5637C14.4468 64.7023 15.0476 65.0005 15.6508 65.3009C16.6584 65.8024 17.6822 66.3131 18.7891 66.0866C19.836 65.9064 20.4877 65.1437 21.3174 64.1662C22.2079 63.128 22.8504 61.9006 23.1962 60.5773C23.1768 60.5356 23.159 60.4932 23.1431 60.4502C23.127 60.4079 23.1092 60.3663 23.0899 60.3254C22.147 58.569 21.3266 56.9999 20.6403 55.6896C20.1919 54.8345 19.8037 54.0904 19.4755 53.4757L17.8971 50.4853C16.7416 48.2945 16.5521 47.934 16.0414 46.9888C14.9181 44.8673 13.7375 42.7767 12.5009 40.7191C11.1606 38.4729 9.79014 35.9724 10.9087 33.3264C11.7813 31.1996 14.1382 30.0965 16.3302 30.7889C18.6574 31.4961 19.6858 33.71 20.6518 35.7806C20.8251 36.1527 20.9985 36.5224 21.1741 36.8783C22.7271 39.9588 24.2454 43.0394 25.7637 46.1176C25.8978 46.4249 26.1011 46.8432 26.3484 47.3493C26.5703 47.8023 26.8268 48.3268 27.0995 48.9092C27.2428 49.2096 27.3768 49.4916 27.5016 49.7458C27.6587 50.0693 27.7951 50.3512 27.8945 50.5777C28.5993 48.8191 29.3134 47.0697 30.0275 45.3226C30.7416 43.5732 31.4557 41.8238 32.1606 40.0675C32.179 39.9681 32.3477 39.5937 32.5996 39.0275C32.9782 38.1914 33.3434 37.3494 33.6951 36.5016C34.6333 34.2161 35.7611 31.4684 38.2685 30.7173C40.0907 30.1904 42.0468 30.8736 43.1447 32.4205C43.6901 33.1831 43.9073 34.052 43.942 34.9209C43.972 36.8437 43.0407 38.9073 42.2434 40.6799C42.0493 41.112 41.8644 41.5257 41.7003 41.9162L41.6056 42.1288C41.3837 42.6234 40.7852 43.973 39.7499 46.1915C39.3755 46.9865 39.0173 47.7838 38.6544 48.588C38.4557 49.0294 38.257 49.4754 38.0513 49.9237Z" fill="#000000" fill-rule="evenodd" opacity="1" stroke="none"/>
</g>
</g>
</svg>
